X:1
T:Robin's Fault
M:4/4
L:1/8
R:Hornpipe
C:D. Asherman
N:My fiddle teacher, Robin Flower, is always stressing the
N:importance of writing your own stuff. So, when I asked myself
N:the question "Why am I writing original tunes when I should
N:be learning the most popular session tunes?", the only answer
N:I could come up with is "It's all Robin's fault!"
N:
N:So this tune is for Robin Flower.
N:
N: Copyright 2002 Doug Asherman
K:Bm
FA|B2 BA BcdB|AFAB A2 FA|B2 Bd efed|BAFA B2 FA|B2 BA BcdB|
AFAB A2 FA|1 B2 Bc defg|fedc B2:|2 B2 Bc defb|fedc B2||
ab|a2 fe dfab|afed f2 ab|a2 fe dedc|BAFA B2 ab|a2 fe dfab|
afed f2 ab|1 a2 fe defg|fedc B2:|2 a2 fe defb|fedc B4||
